X:1
T:Title
%%score { 1 | 2 }
L:1/8
Q:1/4=100
M:4/4
K:G
V:1 treble nm="Grand Piano"
V:2 treble 
V:1
 B3 B cBAG | G2 F4 z2 | A3 G F[EFc] [DGB]>[CGA] | B6 z2 | B3 B cBAG | G2 F4 z2 | %6
w: George~Stebbins * * * * *||||||
 A3 G F[EFc] [DFB]>A | G6 z2 | d3 d edcB | [GB]2 [FA]4 z2 | [Fc]3 [FB] [FA][Fe] [Gd]>[G^c] | %11
w: |||||
 d6 z2 | d3 d edcB | [GB]2 [FA]4 z2 | [Fc]3 [FB] [FA][Ec] [DB]>[CA] | [B,G]6 z2 |] %16
w: |||||
V:2
 [G,DG]3 [G,DG] [G,EG][G,DG][G,CD][K:bass][G,B,D] | [D,B,D]2 [D,A,D]4 z2 | %2
 [D,CD]3 [D,B,D] [D,A,D]D, D,>D, | [G,DG]6 z2 | [G,DG]3 [G,DG] [G,EG][G,DG][G,CD][K:bass][G,B,D] | %5
 [D,B,D]2 [D,A,D]4 z2 | [D,CD]3 [D,B,D] [D,A,D]D, D,>[D,CD] | [G,B,D]6 z2 | %8
 [G,B,G]3 [G,B,G] [G,CG][G,B,G][G,EG][G,DG] | [D,D]2 [D,D]4 z2 | %10
 [D,A,]3 [D,B,] [D,C][D,C] [D,B,]>[D,_B,] | [G,B,G]6 z2 | %12
 [G,B,G]3 [G,B,G] [G,CG][G,B,G][G,EG][G,DG] | [D,D]2 [D,D]4 z2 | %14
 [D,A,]3 [D,B,] [D,C][D,G,] [D,F,]>[D,F,] | [G,,G,]6 z2 |] %16

